dist/assets/images/icons/telegram.svg

<svg width="25" height="25" viewBox="0 0 25 25" fill="none" xmlns="http://www.w3.org/2000/svg">
<path fill-rule="evenodd" clip-rule="evenodd" d="M19.7947 7.51708C19.9435 7.67046 19.9899 7.8961 19.9139 8.09576L15.3139 20.1707C15.2475 20.3449 15.0973 20.4737 14.915 20.5127C14.7326 20.5517 14.5429 20.4957 14.411 20.3638L9.32786 15.2806L4.27607 13.5967C4.05258 13.5222 3.90136 13.3137 3.9 13.0781C3.89865 12.8425 4.04747 12.6322 4.27008 12.5552L19.22 7.38022C19.4219 7.31033 19.646 7.36369 19.7947 7.51708ZM10.4756 14.8727L14.5883 18.9854L18.2441 9.38907L10.4756 14.8727ZM15.9105 9.68985L6.15977 13.0651L9.53501 14.1902L15.9105 9.68985Z" fill="white"/>
<path fill-rule="evenodd" clip-rule="evenodd" d="M0.450012 12.4999C0.450012 5.84477 5.84477 0.450012 12.4999 0.450012C19.1551 0.450012 24.5498 5.84477 24.5498 12.4999C24.5498 19.1551 19.1551 24.5498 12.4999 24.5498C5.84477 24.5498 0.450012 19.1551 0.450012 12.4999ZM12.4999 1.55001C6.45228 1.55001 1.55001 6.45228 1.55001 12.4999C1.55001 18.5476 6.45228 23.4498 12.4999 23.4498C18.5476 23.4498 23.4498 18.5476 23.4498 12.4999C23.4498 6.45228 18.5476 1.55001 12.4999 1.55001Z" fill="white"/>
</svg>

<svg width="25" height="25" fill="none" xmlns="http://www.w3.org/2000/svg"><path fill-rule="evenodd" clip-rule="evenodd" d="M19.795 7.517a.55.55 0 01.119.579l-4.6 12.075a.55.55 0 01-.903.193L9.328 15.28l-5.052-1.684a.55.55 0 01-.006-1.042L19.22 7.38a.55.55 0 01.575.137zm-9.32 7.356l4.113 4.112 3.656-9.596-7.768 5.484zm5.436-5.183L6.16 13.065l3.375 1.125 6.376-4.5z" fill="#fff"/><path fill-rule="evenodd" clip-rule="evenodd" d="M.45 12.5C.45 5.845 5.845.45 12.5.45c6.655 0 12.05 5.395 12.05 12.05 0 6.655-5.395 12.05-12.05 12.05C5.845 24.55.45 19.155.45 12.5zM12.5 1.55C6.452 1.55 1.55 6.452 1.55 12.5c0 6.048 4.902 10.95 10.95 10.95 6.048 0 10.95-4.902 10.95-10.95 0-6.048-4.902-10.95-10.95-10.95z" fill="#fff"/></svg>
